X:1
T:Prélude
T:La Vielle
T:Anon. (XVIIe) Arr.Marieh
T:Recueil de pièces pour la Guitare (bnf, f.15v)
C:François Campion
%%score ( 1 2 )
L:1/8
Q:1/2=96
M:2/2
K:D
V:1 treble-8 nm="Guitare classique"
V:2 treble-8 
V:1
 A2 d2 | e2 f2 g2 f2 | e2 d2 g2 f2 | e2 d2 c2 d2 | e2 d2 A2 d2 | e2 f2 g2 f2 | e2 d2 g2 f2 | %7
 e2 d2 e2 c2 | d4 :: A2 d2 | a2 a2 a2 a2 | f2 d2 g2 f2 | e2 d2 c2 d2 | e2 d2 A2 d2 | a2 a2 a2 a2 | %15
 f2 d2 g2 f2 | e2 d2 e2 c2 | d4 :| %18
V:2
 A,2 D2 | A,2 D2 A,2 D2 | A,2 D2 A,2 D2 | A,2 D2 A,2 D2 | A,2 D2 A,2 D2 | A,2 D2 A,2 D2 | %6
 A,2 D2 A,2 D2 | A,2 D2 E2 A,2 | D4 :: A,2 D2 | A,2 D2 A,2 D2 | A,2 D2 A,2 D2 | A,2 D2 A,2 D2 | %13
 A,2 D2 A,2 D2 | A,2 D2 A,2 D2 | A,2 D2 A,2 D2 | A,2 D2 E2 A,2 | D4 :| %18

